!! Isochronous pitch passage.
!! Treble-line.
!! From Chopin. Etude Opus 25, No. 1, measure 1ff
!! Piano (melody line)
!! Passage contains 157 notes.
!! 4/4 meter
**kern	**metpos
*M4/4	*M4/4
*tb4	*tb4
=0	=0
4r	1
4r	3
4r	2
4ee-	3
=1	=1
4ee-	1
4ee-	3
4ee-	2
4ee-	3
=2	=2
4ff	1
4ee-	3
4ee-	2
4ee-	3
=3	=3
4ee-	1
4ee-	3
4ff	2
4ee-	3
=4	=4
4bb-	1
4aa-	3
4aa-	2
4aa-	3
=5	=5
4aa-	1
4aa-	3
4aa-	2
4bb-	3
=6	=6
4ccc	1
4bb-	3
4aa-	2
4ff	3
=7	=7
4ff	1
4gg	3
4aa-	2
4b-	3
=8	=8
4b-	1
4cc	3
4dd-	2
4e-	3
=9	=9
4ee-	1
4ee-	3
4ee-	2
4ee-	3
=10	=10
4ff	1
4ee-	3
4ee-	2
4ee-	3
=11	=11
4ee-	1
4bb-	3
4ccc	2
4gg	3
=12	=12
4bb-	1
4aa-	3
4aa-	2
4aa-	3
=13	=13
4aa-	1
4aa-	3
4aa-	2
4bb-	3
=14	=14
4ccc	1
4gg	3
4gg	2
4gg	3
=15	=15
4gg	1
4gg	3
4gg	2
4gg	3
=16	=16
4ddn	1
4cc	3
4cc	2
4cc	3
=17	=17
4cc	1
4cc	3
4dd-	2
4cc	3
=18	=18
4cc	1
4ddn	3
4een	2
4ff	3
=19	=19
4ee-	1
4ee-	3
4ff	2
4ee-	3
=20	=20
4ee-	1
4ff	3
4gg	2
4aa-	3
=21	=21
4gg	1
4gg	3
4aa-	2
4ff	3
=22	=22
4een	1
4ddn	3
4ff	2
4ee	3
=23	=23
4een	1
4ddn	3
4ff	2
4ee	3
=24	=24
4een	1
4ddn	3
4ff#	2
4ee	3
=25	=25
4een	1
4aan	3
4bbn	2
4cccn	3
=26	=26
4ccc	1
4bb-	3
4ddd-	2
4ff	3
=27	=27
4bb-	1
4aa-	3
4ccc	2
4ee-	3
=28	=28
4ee-	1
4een	3
4ff	2
4ee-	3
=29	=29
4dd-	1
4cc	3
4cc	2
4ccc	3
=30	=30
4ccc	1
4bb-	3
4ddd-	2
4ff-	3
=31	=31
4bb-	1
4aa-	3
4ccc	2
4ee-	3
=32	=32
4ee-	1
4ff	3
4gg-	2
4ff	3
=33	=33
4ff	1
4ggn	3
4aa-	2
4gg	3
=34	=34
4gg	1
4aa-	3
4aan	2
4ggg-	3
=35	=35
4fff	1
4bb-	3
4ddd-	2
4gg	3
=36	=36
4aa-	1
4ee-	3
4ee-	2
4ee-	3
=37	=37
4ff	1
4ee-	3
4ccc	2
4gg	3
=38	=38
4aa-	1
4ee-	3
4ee-	2
4ee-	3
=39	=39
*-	*-
